korla/apps/symbolic/gnome-software-symbolic.svg

<svg style="clip-rule:evenodd;fill-rule:evenodd;stroke-linejoin:round;stroke-miterlimit:2" version="1.1" viewBox="0 0 16 16" xmlns="http://www.w3.org/2000/svg">
 <path d="m6 1-1 1v1h-4v9.5c0 1.5 1.5 1.5 1.5 1.5h11s1.5 0 1.5-1.5v-9.5h-4v-1l-1-1h-4zm8.134 2.931h-12.268v8.481c0 0.167 0.066 0.327 0.185 0.446 0.118 0.118 0.278 0.184 0.445 0.184h11.008c0.167 0 0.327-0.066 0.445-0.184 0.119-0.119 0.185-0.279 0.185-0.446v-8.481zm-8.134-1.931h4v1h-4v-1z" style="fill:rgb(223,223,223)"/>
</svg>

<svg xmlns="http://www.w3.org/2000/svg" width="16" height="16" version="1.1">
 <path style="fill:#dfdfdf" d="M 6,1 5,2 V 3 H 1 V 12.5 C 1,14 2.5,14 2.5,14 H 13.5 C 13.5,14 15,14 15,12.5 V 3 H 11 V 2 L 10,1 Z M 6,2 H 10 V 3 H 6 Z"/>
</svg>
